!!!OTL: ICH GIENG EINMAL SPAZIERE
!!!ARE: Europa, Mitteleuropa, Deutschland, Hessen, Hanau; Dillenburg
!!!SCT: E0533A
!!!YEM: Copyright 1995, estate of Helmut Schaffrath.
**kern
*ICvox
*Ivox
*M2/4
*k[f#]
*G:
{8d
=1
8g
8g
8g
8d
=2
4g
8g
8d
=3
4g
8r}
{8dd
=4
8dd
8dd
8dd
8dd
=5
4ee
8ee}
{8dd
=6
8cc
8cc
8cc
8ee
=7
4dd
8r}
{8b
=8
8b
8b
8b
8b
=9
4cc
8cc
8dd
=10
4b
8r}
==
!!!AGN: Liebes - Lied
!!!ONB: ESAC (Essen Associative Code) Database: ERK1
!!!AMT: simple duple
!!!AIN: vox
!!!EED: Helmut Schaffrath
!!!EEV: 1.0
*-
